pizza/images/statistics-3.svg

<?xml version="1.0" encoding="UTF-8"?>
<svg xmlns="http://www.w3.org/2000/svg" xmlns:xlink="http://www.w3.org/1999/xlink" width="80pt" height="80pt" viewBox="0 0 80 80" version="1.1">
<g id="surface1">
<path style=" stroke:none;fill-rule:nonzero;fill:rgb(50.588235%,0%,0%);fill-opacity:1;" d="M 33.390625 67.179688 C 18.40625 67.179688 6.210938 54.992188 6.210938 40.003906 C 6.210938 25.011719 18.402344 12.816406 33.390625 12.816406 C 40.886719 12.816406 47.683594 15.863281 52.601562 20.785156 L 56.992188 16.402344 C 50.945312 10.355469 42.601562 6.609375 33.390625 6.609375 C 14.976562 6.609375 0 21.585938 0 40.003906 C 0 58.414062 14.972656 73.390625 33.390625 73.390625 C 50.28125 73.390625 64.28125 60.777344 66.472656 44.476562 L 60.316406 43.644531 C 58.535156 56.910156 47.136719 67.179688 33.390625 67.179688 Z M 39.042969 33.847656 C 37.804688 33.847656 36.800781 32.847656 36.800781 31.609375 C 36.800781 30.371094 37.804688 29.363281 39.042969 29.363281 C 40.28125 29.363281 41.289062 30.367188 41.289062 31.609375 C 41.289062 31.8125 41.246094 32 41.199219 32.183594 L 48.753906 24.632812 C 44.820312 20.695312 39.386719 18.265625 33.382812 18.265625 C 21.378906 18.265625 11.652344 27.996094 11.652344 40.003906 C 11.652344 52.003906 21.378906 61.734375 33.382812 61.734375 C 44.398438 61.734375 53.472656 53.535156 54.898438 42.914062 L 33.382812 40.003906 L 39.609375 33.777344 C 39.433594 33.816406 39.25 33.847656 39.042969 33.847656 Z M 24.691406 43.472656 C 22.460938 43.472656 20.65625 41.660156 20.65625 39.4375 C 20.65625 37.203125 22.460938 35.398438 24.691406 35.398438 C 26.921875 35.398438 28.726562 37.203125 28.726562 39.4375 C 28.730469 41.664062 26.921875 43.472656 24.691406 43.472656 Z M 27.296875 31.605469 C 25.859375 31.605469 24.695312 30.4375 24.695312 29 C 24.695312 27.5625 25.863281 26.398438 27.296875 26.398438 C 28.730469 26.398438 29.902344 27.566406 29.902344 29 C 29.902344 30.4375 28.734375 31.605469 27.296875 31.605469 Z M 37.425781 46.890625 C 38.792969 46.890625 39.910156 48 39.910156 49.375 C 39.910156 50.742188 38.796875 51.859375 37.425781 51.859375 C 36.050781 51.859375 34.9375 50.746094 34.9375 49.375 C 34.9375 48 36.050781 46.890625 37.425781 46.890625 Z M 62.539062 17.105469 L 53.6875 25.28125 C 54.402344 25.839844 54.871094 26.703125 54.871094 27.6875 C 54.871094 29.371094 53.507812 30.746094 51.8125 30.746094 C 50.746094 30.746094 49.808594 30.195312 49.261719 29.371094 L 40.9375 37.058594 L 46.886719 37.972656 C 46.605469 37.539062 46.421875 37.019531 46.421875 36.460938 C 46.421875 34.972656 47.628906 33.769531 49.117188 33.769531 C 50.605469 33.769531 51.816406 34.972656 51.816406 36.460938 C 51.816406 37.320312 51.40625 38.078125 50.773438 38.574219 L 58.878906 39.820312 C 58.859375 39.695312 58.835938 39.574219 58.835938 39.441406 C 58.835938 38.242188 59.808594 37.261719 61.015625 37.261719 C 62.210938 37.261719 63.1875 38.238281 63.1875 39.441406 C 63.1875 39.808594 63.089844 40.148438 62.929688 40.449219 L 70.523438 41.617188 C 70.527344 41.617188 72.808594 26.089844 62.539062 17.105469 Z M 41.203125 32.179688 L 39.617188 33.769531 C 40.390625 33.5625 40.996094 32.957031 41.203125 32.179688 Z M 69.273438 11.375 L 65.179688 15.511719 C 71.992188 21.289062 75.566406 30.5 73.703125 39.871094 C 73.601562 40.394531 73.480469 40.898438 73.351562 41.402344 L 79.085938 42.417969 C 79.203125 41.945312 79.308594 41.476562 79.398438 41.003906 C 81.65625 29.652344 77.417969 18.488281 69.273438 11.375 Z M 69.273438 11.375 "/>
</g>
</svg>

<svg xmlns="http://www.w3.org/2000/svg" width="80pt" height="80pt" viewBox="0 0 80 80"><path d="M33.39 67.18c-14.984 0-27.18-12.188-27.18-27.176 0-14.992 12.192-27.188 27.18-27.188 7.497 0 14.294 3.047 19.212 7.97l4.39-4.384c-6.047-6.047-14.39-9.793-23.601-9.793C14.977 6.61 0 21.586 0 40.004 0 58.414 14.973 73.39 33.39 73.39c16.891 0 30.891-12.614 33.083-28.914l-6.157-.832C58.536 56.91 47.136 67.18 33.391 67.18zm5.653-33.332c-1.238 0-2.242-1-2.242-2.239a2.246 2.246 0 012.242-2.246 2.246 2.246 0 012.246 2.246c0 .203-.043.391-.09.575l7.555-7.551a21.652 21.652 0 00-15.371-6.367c-12.004 0-21.73 9.73-21.73 21.738 0 12 9.726 21.73 21.73 21.73 11.015 0 20.09-8.199 21.515-18.82l-21.515-2.91 6.226-6.227c-.175.04-.359.07-.566.07zm-14.352 9.625a4.038 4.038 0 010-8.075 4.034 4.034 0 014.036 4.04 4.033 4.033 0 01-4.036 4.035zm2.606-11.868a2.604 2.604 0 010-5.207A2.609 2.609 0 0129.902 29a2.607 2.607 0 01-2.605 2.605zm10.129 15.286a2.486 2.486 0 012.484 2.484 2.486 2.486 0 01-4.973 0 2.484 2.484 0 012.489-2.484zm25.113-29.786l-8.852 8.176a3.045 3.045 0 011.184 2.407 3.058 3.058 0 01-3.059 3.058 3.061 3.061 0 01-2.55-1.375l-8.325 7.688 5.95.914a2.785 2.785 0 01-.465-1.512 2.692 2.692 0 012.695-2.691c1.488 0 2.7 1.203 2.7 2.69 0 .86-.41 1.618-1.044 2.114l8.106 1.246c-.02-.125-.043-.246-.043-.379 0-1.199.973-2.18 2.18-2.18 1.195 0 2.172.977 2.172 2.18 0 .368-.098.707-.258 1.008l7.593 1.168c.004 0 2.286-15.527-7.984-24.512zM41.203 32.18l-1.586 1.59a2.242 2.242 0 001.586-1.59zm28.07-20.805l-4.093 4.137c6.812 5.777 10.386 14.988 8.523 24.36a26.528 26.528 0 01-.351 1.53l5.734 1.016c.117-.473.223-.941.312-1.414 2.258-11.352-1.98-22.516-10.125-29.629zm0 0" fill="#810000"/></svg>
